svg/color/lnbtc.svg

<svg xmlns="http://www.w3.org/2000/svg" width="36" height="36" viewBox="0 0 36 36" fill="none">
  <mask id="mask0_3686_7772" style="mask-type:luminance" maskUnits="userSpaceOnUse" x="0" y="0" width="36" height="36">
    <path d="M36 0H0V36H36V0Z" fill="white"/>
  </mask>
  <g mask="url(#mask0_3686_7772)">
    <path d="M17.998 36.0005C27.9392 36.0005 35.998 27.9416 35.998 18.0005C35.998 8.05936 27.9392 0.000488281 17.998 0.000488281C8.05692 0.000488281 -0.00195312 8.05936 -0.00195312 18.0005C-0.00195312 27.9416 8.05692 36.0005 17.998 36.0005Z" fill="#7B1AF7"/>
    <path d="M10.1825 18.3893L22.1825 8.04879C22.7054 7.71393 23.2038 8.04879 22.8846 8.62326L19.0548 16.1552H25.8846C25.8846 16.1552 26.9697 16.1552 25.8846 17.0488L14.0761 27.4531C13.2463 28.1552 12.6718 27.7722 13.2463 26.6871L16.9484 19.3467H10.1825C10.1825 19.3467 9.09736 19.3467 10.1825 18.3893Z" fill="white"/>
  </g>
</svg>

<svg xmlns="http://www.w3.org/2000/svg" width="36" height="36" fill="none" viewBox="0 0 36 36"><mask id="lnbtc_svg-a" width="36" height="36" x="0" y="0" maskUnits="userSpaceOnUse" style="mask-type:luminance"><path fill="#fff" d="M36 0H0v36h36z"/></mask><g mask="url(#lnbtc_svg-a)"><path fill="#7B1AF7" d="M17.998 36c9.941 0 18-8.058 18-18 0-9.94-8.059-18-18-18s-18 8.06-18 18c0 9.942 8.059 18 18 18"/><path fill="#fff" d="m10.183 18.39 12-10.341c.522-.335 1.02 0 .702.574l-3.83 7.532h6.83s1.085 0 0 .894L14.076 27.453c-.83.702-1.404.32-.83-.766l3.702-7.34h-6.766s-1.085 0 0-.958"/></g></svg>
